public/assets/vectors/git.svg

<?xml version="1.0" encoding="UTF-8" standalone="no"?>
<svg
   xmlns:dc="http://purl.org/dc/elements/1.1/"
   xmlns:cc="http://creativecommons.org/ns#"
   xmlns:rdf="http://www.w3.org/1999/02/22-rdf-syntax-ns#"
   xmlns:svg="http://www.w3.org/2000/svg"
   xmlns="http://www.w3.org/2000/svg"
   xmlns:sodipodi="http://sodipodi.sourceforge.net/DTD/sodipodi-0.dtd"
   xmlns:inkscape="http://www.inkscape.org/namespaces/inkscape"
   width="100pt"
   height="100pt"
   viewBox="0 0 100 100"
   version="1.1"
   id="svg5"
   sodipodi:docname="git.svg"
   inkscape:version="0.92.4 (5da689c313, 2019-01-14)">
  <metadata
     id="metadata11">
    <rdf:RDF>
      <cc:Work
         rdf:about="">
        <dc:format>image/svg+xml</dc:format>
        <dc:type
           rdf:resource="http://purl.org/dc/dcmitype/StillImage" />
        <dc:title></dc:title>
      </cc:Work>
    </rdf:RDF>
  </metadata>
  <defs
     id="defs9" />
  <sodipodi:namedview
     pagecolor="#ffffff"
     bordercolor="#666666"
     borderopacity="1"
     objecttolerance="10"
     gridtolerance="10"
     guidetolerance="10"
     inkscape:pageopacity="0"
     inkscape:pageshadow="2"
     inkscape:window-width="1600"
     inkscape:window-height="877"
     id="namedview7"
     showgrid="false"
     inkscape:document-units="pt"
     inkscape:zoom="2.2125"
     inkscape:cx="53.333333"
     inkscape:cy="53.333333"
     inkscape:window-x="-8"
     inkscape:window-y="90"
     inkscape:window-maximized="1"
     inkscape:current-layer="svg5" />
  <g
     id="surface177127"
     transform="matrix(1.263106,0,0,1.263106,-0.52424,-0.52424)">
    <path
       style="fill:#f34f1c;fill-opacity:1;fill-rule:nonzero;stroke:none"
       d="M 70.332031,36.832031 43.167969,9.667969 C 42.332031,8.832031 41.167969,8.332031 40,8.332031 c -1.167969,0 -2.332031,0.5 -3.167969,1.335938 L 31,15.5 37.832031,22.332031 C 38.5,22 39.167969,21.832031 40,21.832031 c 2.832031,0 5,2.167969 5,5 0,0.835938 -0.167969,1.5 -0.5,2.167969 l 6.667969,6.667969 c 0.664062,-0.335938 1.332031,-0.5 2.164062,-0.5 2.835938,0 5,2.164062 5,5 0,2.832031 -2.164062,5 -5,5 -2.832031,0 -5,-2.167969 -5,-5 0,-0.835938 0.167969,-1.5 0.5,-2.167969 L 42.167969,31.332031 C 42,31.332031 41.832031,31.5 41.667969,31.5 V 48.832031 C 43.667969,49.5 45,51.332031 45,53.5 c 0,2.832031 -2.167969,5 -5,5 -2.832031,0 -5,-2.167969 -5,-5 0,-2.167969 1.332031,-4 3.332031,-4.667969 v -17.5 c -2,-0.664062 -3.332031,-2.5 -3.332031,-4.664062 0,-0.835938 0.167969,-1.5 0.5,-2.167969 l -6.832031,-6.832031 -19,19.164062 c -0.835938,0.835938 -1.335938,2 -1.335938,3.167969 0,1.167969 0.5,2.332031 1.335938,3.167969 l 27.164062,27.164062 c 0.835938,0.835938 2,1.335938 3.167969,1.335938 1.167969,0 2.332031,-0.5 3.167969,-1.335938 L 70.332031,43.167969 c 0.835938,-0.835938 1.335938,-2 1.335938,-3.167969 0,-1.167969 -0.5,-2.332031 -1.335938,-3.167969 z m 0,0"
       id="path2"
       inkscape:connector-curvature="0" />
  </g>
</svg>

<?xml version="1.0" encoding="UTF-8"?>
<svg xmlns="http://www.w3.org/2000/svg" xmlns:xlink="http://www.w3.org/1999/xlink" width="80pt" height="80pt" viewBox="0 0 80 80" version="1.1">
<g id="surface177127">
<path style=" stroke:none;fill-rule:nonzero;fill:rgb(95.686275%,31.764706%,11.764706%);fill-opacity:1;" d="M 70.332031 36.832031 L 43.167969 9.667969 C 42.332031 8.832031 41.167969 8.332031 40 8.332031 C 38.832031 8.332031 37.667969 8.832031 36.832031 9.667969 L 31 15.5 L 37.832031 22.332031 C 38.5 22 39.167969 21.832031 40 21.832031 C 42.832031 21.832031 45 24 45 26.832031 C 45 27.667969 44.832031 28.332031 44.5 29 L 51.167969 35.667969 C 51.832031 35.332031 52.5 35.167969 53.332031 35.167969 C 56.167969 35.167969 58.332031 37.332031 58.332031 40.167969 C 58.332031 43 56.167969 45.167969 53.332031 45.167969 C 50.5 45.167969 48.332031 43 48.332031 40.167969 C 48.332031 39.332031 48.5 38.667969 48.832031 38 L 42.167969 31.332031 C 42 31.332031 41.832031 31.5 41.667969 31.5 L 41.667969 48.832031 C 43.667969 49.5 45 51.332031 45 53.5 C 45 56.332031 42.832031 58.5 40 58.5 C 37.167969 58.5 35 56.332031 35 53.5 C 35 51.332031 36.332031 49.5 38.332031 48.832031 L 38.332031 31.332031 C 36.332031 30.667969 35 28.832031 35 26.667969 C 35 25.832031 35.167969 25.167969 35.5 24.5 L 28.667969 17.667969 L 9.667969 36.832031 C 8.832031 37.667969 8.332031 38.832031 8.332031 40 C 8.332031 41.167969 8.832031 42.332031 9.667969 43.167969 L 36.832031 70.332031 C 37.667969 71.167969 38.832031 71.667969 40 71.667969 C 41.167969 71.667969 42.332031 71.167969 43.167969 70.332031 L 70.332031 43.167969 C 71.167969 42.332031 71.667969 41.167969 71.667969 40 C 71.667969 38.832031 71.167969 37.667969 70.332031 36.832031 Z M 70.332031 36.832031 "/>
</g>
</svg>
